!!!OTL: 774. Gottes Rath und Scheiden.
!!!COM: F. Mendelssohn
!!!ODT: 1839
!!!ARE: Europa, Mitteleuropa, Deutschland
!!!SCT: B0774
!!!TXL: @@DE
!!!YEM: Copyright 1995, estate of Helmut Schaffrath.
**kern	**text
*ICvox	*
*Ivox	*
*clefG2	*
*M4/4	*
*met(c)	*
*k[f#c#]	*
*D:	*
!LO:TX:a:t=Etwas angehalten.	!
{4a	Es
=1	=1
4.g	iſt
8f#	beſtimmt
4f#	.
4dd	in
=2	=2
4.cc#	Got-
8b	-tes
4b}	Ratb,
{4b	daß
=3	=3
4e	man
4f#	vom
4g	Liebſten,
4b	.
=4	=4
4.a	was
8g	man
4f#}	hat,
{4a	muß
=5	=5
(4.e	ſchei-
8g)	.
4f#	-den,
4a	ja
=6	=6
(4.e	ſchei-
8g)	.
4f#}	-den;
{4f#	wiewohl
=7	=7
4dd	.
4cc#	doch
4.b	nichts
8a	im
=8	=8
4.a	Lauf
8g#	der
4g#}	Welt
{4e	dem
=9	=9
4cc#	Herʒen,
4b	.
4.a	ach,
8g#	ſo
=10	=10
4.g#^	ſau-
8f#	-er
4f#}	fällt,
{4a	als
=11	=11
(4.e	Schei-
8g)	.
4f#	-den,
4a	als
=12	=12
(4.e	Schei-
8g)	.
4f#	-den,
4a	ja
=13	=13
(2.e	Schei-
4g)	.
=14	=14
2.f#;}	-den!
==:|	==:|
!!!AGN: Abschieds - Lied, religioes
!!!GTL: Religioese Lieder
!!!ONB: ESAC (Essen Associative Code) Database: BOEHME
!!!AMT: simple quadruple
!!!AIN: vox
!!!EED: Helmut Schaffrath
!!!EEV: 1.0
!!@@COMMENT:"Gedicht von Ernſt Freiherr von Feuchtersleben, vor 1826 gedichtet, als er noch Schüler
!!der Thereſianiſchen Ritterakademie in Wien war. Gedruckt in deſſen Gedichten 1836. Unbegründet
!!iſt das Gerede, es ſei der Text einem alten Volksliede nachgebildet, was man vielleicht deshalb
!!vermuthete, weil der Dichter in Str. 2 eine alte Sprachform verwendet. Daß dieſes ernſte Scheide-
!!lied ʒu einem Grabgeſang geworden, iſt erklärlich; doch iſt's daʒu n icht beſtimmt geweſen und
!!durch ſeinen Jnhalt nicht durchweg gerechtſertigt. Die ſchöne Melodie Mendelsſohns op. 47
!!erſchien erſt einſtimmig mit Clavierbegl., bald auch mehrſtimmig geſetʒt für gemiſchten und für
!!Männerchor. Ueber Mendelsſohns Verdienſte um Hebung des deutſchen Volksliedes vgl. Riehl,
!!mufikal. Charakterköpfe J. S. 108.
!!was = alte Form für "war"."
!!@@END:
!!!Text: E. F. von Feuchtersleben
!!!URL-scan: https://archive.org/details/BoehmeVtLieder1895/page/n617/mode/2up
!!!ENC: Anna Maria Matuszewska
!!!EEV: 2024/19/07
*-	*-
